X:1
T:Title
%%score ( 1 2 ) ( 3 4 )
L:1/8
Q:1/4=100
M:3/4
K:Eb
V:1 treble nm="Grand Piano, Unnamed-000"
V:2 treble 
V:3 bass nm="Choir Pad, Nettleton, 87.87 D"
V:4 bass 
V:1
 [EG][DF] E2 E2 | [EG][EB] [DF]2 [DF]2 | [EG][EB] [Ec]2 [EB]2 | [EG][DF] E4 | [EG][DF] E2 E2 | %5
w: By~John~Wyeth,~1813 * * *|||||
 [EG][EB] [DF]2 [DF]2 | [EG][EB] [Ec]2 [EB]2 | [EG][DF] E4 | z .c z2 z2 | z2 .c2 z2 | z .c z2 z2 | %11
w: ||||||
 [Ac][FB] [Ge]4 | [EG][DF] E2 E2 | [EG][EB] [DF]2 [DF]2 | [EG][EB] [Ec]2 [EB]2 | [EG][DF] E4- | %16
w: |||||
 E4 z2 |] %17
w: |
V:2
 x6 | x6 | x6 | x6 | x6 | x6 | x6 | x6 | [EB]A/-[Ad]/ [Ge]2 [Bd]2 | [Ac][GB] E-[EB] [EG]2 | %10
 [EB]A/-[Ad]/ [Ge]2 [Bd]2 | x6 | x6 | x6 | x6 | x6 | x6 |] %17
V:3
 [E,B,][B,,A,] [E,G,]2 [E,G,]2 | [E,B,][G,B,] [B,,B,]2 [B,,B,]2 | [E,B,][G,B,] A,2 [E,G,]2 | %3
 [B,,B,][B,,A,] [E,G,]4 | [E,B,][B,,A,] [E,G,]2 [E,G,]2 | [E,B,][G,B,] [B,,B,]2 [B,,B,]2 | %6
 [E,B,][G,B,] A,2 [E,G,]2 | [B,,B,][B,,A,] [E,G,]4 | [G,B,][F,A,] [E,B,]2 [G,B,]2 | %9
 [A,E][A,E] A,G, [E,B,]2 | [G,B,][F,A,] [E,B,]2 [G,B,]2 | [A,E][B,D] [E,B,]4 | %12
 [E,B,][B,,A,] [E,G,]2 [E,G,]2 | [E,B,][G,B,] [B,,B,]2 [B,,B,]2 | [E,B,][G,B,] A,2 [E,G,]2 | %15
 [B,,B,][B,,A,] [E,G,]4- | [E,G,]4 z2 |] %17
V:4
 x6 | x6 | x6 | x6 | x6 | x6 | x6 | x6 | x6 | z2 E,2 z2 | x6 | x6 | x6 | x6 | x6 | x6 | x6 |] %17

